X: 8
T: The Beauty Spot
R: reel
M: 4/4
L: 1/8
K: Dmaj
c|ABGB Addc | ABGF EFG2 | ABGB AddB | cAGE FDDc | ABGB Addc | ABGF EFG2 | AGAE BABd | cAGE FDD |
g| edcd eddg | edcd eaag | edcd eddc | ABcd eddg | edcd eddg | edcd eaag | (3efg dB cAGB | ABcd edd |


Tune 1270	Setting 1270

